packages/icons/general/Message.svg

<svg width="24" height="24" viewBox="0 0 24 24" xmlns="http://www.w3.org/2000/svg">
<g>
        <path
            d="M4.5 6.46875C4.5 4.8119 5.84315 3.46875 7.5 3.46875H16.5C18.1569 3.46875 19.5 4.8119 19.5 6.46875V18.4688C19.5 20.1256 18.1569 21.4688 16.5 21.4688H7.5C5.84315 21.4688 4.5 20.1256 4.5 18.4688V6.46875Z"
            fill="#FBB03B"
        />
        <path d="M19.5 10.1953V6.46875C19.5 4.8119 18.1569 3.46875 16.5 3.46875H12.7734L19.5 10.1953Z" fill="#FCDA21" />
        <path
            d="M12.7734 3.46875L12.7734 7.19531C12.7734 8.85217 14.1166 10.1953 15.7734 10.1953L19.5 10.1953L12.7734 3.46875Z"
            fill="#F7931E"
        />
    </g>
</svg>

<svg xmlns="http://www.w3.org/2000/svg" viewBox="0 0 24 24">
    <path fill="#FBB03B" d="M4.5 6.469a3 3 0 0 1 3-3h9a3 3 0 0 1 3 3v12a3 3 0 0 1-3 3h-9a3 3 0 0 1-3-3v-12Z"/>
    <path fill="#FCDA21" d="M19.5 10.195V6.47a3 3 0 0 0-3-3h-3.727l6.727 6.726Z"/>
    <path fill="#F7931E" d="M12.773 3.469v3.726a3 3 0 0 0 3 3H19.5L12.773 3.47Z"/>
</svg>
